X:78
T:Holly Bush (r)
B:NFID.238a
078holly
S:PT
Z:Robinson/Black
N:I added the second ending to Part 2 to avoid ending the tune
on a triplet |(3EFG)|.
L:1/8
M:C
R:reel
Q:360
K:D=C
(3EFG|:A2FA DAFA|Adde fded|cG (3GGG EGGG|cded cABG|
(3ABA FA DEFG|Adde fded|cG (3GGG cded|cAGE D2FG:|
Addc defg|adde dcAB|c2cB cd (3efg|aged cAG2|
Addc defg|adde dcAB|cG (3GGG cded|1 ^cAGE D2 (3EFG:|\
[2 ^cAGE HD4|]

